X: 2406
T: Oh, Whistle and I'll Come Tae Ye, My Lad
P: Borowlaski's Fancy
C:Campbell's Coll.
R:Jig (8x32) ABAA
B:RSCDS 24-6
Z:Anselm Lingnau <anselm@strathspey.org>
M:6/8
L:1/8
K:C
G|"C"c>dc e2c|e2c "F"A2A|"C"GAG ceg|[e3c3] "G7"[d2B2]G|
  "C"cec e2c|"Am"e2c "F"A2a|"C"gec "G"dcd|"C"e3 c2||
[ec]|"G"[d2B2][cA] [B2G2][cA]|[d2B2][gG] [^f2^F2][gG]|\
  "D"[d2B2][cA] "D7"[B2G2][A^F]|"G"[B3G3] G2[ec]|
  "G"[d2B2][cA] [B2G2][cA]|[dB]e^f "C"g2[ec]|\
  "D7"[dBE]ed [c^F]BA| "G"[GB,][GB,][GB,] "da Capo"[G2B,2]|]
%%center Book24/2406-Oh_Whistle_and_Ill_Come_Tae_Ye_My_Lad-AL.abc

%%sep 1 1 500
%%sep 1 1 500

